public/luts/lut-R04.cube
LUT_3D_SIZE 16
0.009197 0.013177 0.018164
0.024935 0.035706 0.042001
0.040674 0.058167 0.065753
0.056516 0.080676 0.089507
0.073199 0.104191 0.114338
0.089643 0.127162 0.138554
0.105453 0.148968 0.161520
0.122227 0.171816 0.185563
0.139401 0.194822 0.209715
0.156952 0.218045 0.234035
0.175661 0.242185 0.259300
0.192985 0.264139 0.282179
0.213634 0.289670 0.308745
0.235096 0.315454 0.335437
0.258006 0.342176 0.363008
0.283229 0.370582 0.392206
0.035315 0.050535 0.057680
0.038319 0.054815 0.062206
0.047796 0.068322 0.076476
0.061160 0.087230 0.096433
0.075798 0.107818 0.118164
0.091163 0.129276 0.140787
0.107336 0.151534 0.164248
0.123765 0.173940 0.187784
0.140692 0.196573 0.211545
0.158081 0.219466 0.235541
0.176199 0.242905 0.260032
0.194976 0.266641 0.284796
0.214493 0.290666 0.309759
0.235917 0.316406 0.336390
0.258862 0.343141 0.364019
0.284071 0.371568 0.393133
0.061677 0.087981 0.097223
0.062912 0.089713 0.099063
0.067609 0.096326 0.106036
0.076269 0.108488 0.118889
0.086965 0.123407 0.134623
0.101166 0.143065 0.155306
0.114900 0.161883 0.175113
0.130147 0.182470 0.196759
0.146151 0.203842 0.219129
0.162891 0.225722 0.242048
0.180243 0.248050 0.265390
0.198351 0.270776 0.289076
0.217907 0.294854 0.314070
0.240168 0.321401 0.341642
0.262465 0.347280 0.368263
0.287652 0.375544 0.397151
0.088506 0.125564 0.136884
0.089233 0.126566 0.137943
0.092260 0.130767 0.142361
0.097491 0.138013 0.150010
0.105631 0.149201 0.161759
0.116570 0.164132 0.177485
0.128524 0.180294 0.194507
0.141982 0.198299 0.213349
0.156581 0.217533 0.233511
0.172165 0.237681 0.254613
0.189348 0.259569 0.277408
0.207090 0.281639 0.300408
0.225726 0.304265 0.323873
0.246308 0.328674 0.349134
0.269792 0.355564 0.376840
0.295078 0.383630 0.405542
0.116015 0.163396 0.176731
0.116511 0.164063 0.177413
0.119069 0.167549 0.181049
0.122624 0.172369 0.186148
0.129313 0.181371 0.195600
0.137626 0.192503 0.207272
0.147146 0.205100 0.220527
0.158737 0.220326 0.236443
0.171749 0.237205 0.254091
0.186068 0.255433 0.273094
0.201739 0.275025 0.293533
0.218994 0.296149 0.315472
0.237796 0.318605 0.338736
0.258518 0.342730 0.363602
0.281550 0.368721 0.390258
0.306972 0.396595 0.418719
0.144415 0.201546 0.216750
0.144777 0.202054 0.217259
0.146747 0.204593 0.219960
0.150260 0.209256 0.224799
0.154579 0.214893 0.230749
0.162105 0.224725 0.241009
0.169594 0.234423 0.251189
0.179645 0.247313 0.264608
0.191277 0.261975 0.279929
0.204556 0.278483 0.297106
0.219367 0.296577 0.315923
0.236418 0.316984 0.337051
0.253752 0.337245 0.357971
0.275608 0.362076 0.383568
0.298305 0.387237 0.409190
0.323974 0.414708 0.437120
0.174012 0.240059 0.257080
0.174312 0.240489 0.257483
0.175609 0.242093 0.259215
0.177482 0.244568 0.261760
0.182423 0.250788 0.268263
0.188028 0.257912 0.275707
0.195413 0.267135 0.285295
0.204413 0.278317 0.296930
0.215071 0.291434 0.310596
0.227572 0.306508 0.326173
0.242199 0.323783 0.344074
0.257687 0.341800 0.362611
0.276159 0.362746 0.384157
0.297473 0.386225 0.408193
0.320832 0.411363 0.433770
0.346909 0.438689 0.461206
0.205585 0.279715 0.298409
0.205808 0.280033 0.298750
0.207183 0.281761 0.300559
0.209951 0.285153 0.303980
0.213201 0.289077 0.308129
0.218197 0.295184 0.314425
0.224927 0.303288 0.322850
0.233365 0.313382 0.333319
0.243626 0.325488 0.345816
0.255719 0.339535 0.360327
0.269796 0.355567 0.376844
0.285846 0.373523 0.395159
0.304902 0.394296 0.416457
0.326846 0.417801 0.440236
0.349882 0.441687 0.464359
0.376539 0.468851 0.491461
0.240753 0.322056 0.342310
0.240932 0.322349 0.342585
0.241555 0.323106 0.343332
0.244365 0.326405 0.346756
0.247997 0.330556 0.351083
0.252690 0.336016 0.356692
0.259297 0.343635 0.364530
0.267588 0.353072 0.374254
0.277738 0.364504 0.385950
0.289833 0.377936 0.399736
0.304922 0.394335 0.416392
0.320135 0.410604 0.432974
0.339106 0.430586 0.453142
0.362031 0.454100 0.476880
0.386392 0.478551 0.501264
0.414053 0.505861 0.528364
0.281401 0.368616 0.390138
0.281661 0.368851 0.390416
0.283231 0.370608 0.392200
0.285262 0.372883 0.394529
0.288218 0.376181 0.397890
0.293852 0.382370 0.404149
0.300049 0.389035 0.411057
0.308504 0.398146 0.420359
0.318847 0.409347 0.431643
0.331298 0.422445 0.444857
0.347135 0.438894 0.461434
0.362735 0.454848 0.477487
0.381854 0.474126 0.496795
0.406794 0.498754 0.521309
0.431644 0.522729 0.545073
0.460455 0.549955 0.571942
0.329681 0.420723 0.443149
0.329903 0.420969 0.443348
0.331544 0.422686 0.445128
0.333694 0.424958 0.447376
0.337577 0.428964 0.451510
0.342427 0.434123 0.456580
0.348949 0.440771 0.463427
0.357722 0.449786 0.472355
0.368449 0.460674 0.483469
0.381509 0.473799 0.496476
0.396909 0.489001 0.511639
0.414209 0.505953 0.528429
0.436741 0.527605 0.549856
0.461578 0.551032 0.573025
0.487266 0.574770 0.596222
0.517082 0.601919 0.622677
0.387582 0.479825 0.502481
0.387910 0.480159 0.502796
0.388627 0.480848 0.503457
0.390889 0.483097 0.505714
0.396161 0.488267 0.510978
0.401392 0.493438 0.516031
0.408125 0.500035 0.522530
0.417333 0.508994 0.531461
0.428792 0.520038 0.542413
0.442640 0.533187 0.555454
0.458372 0.548035 0.569999
0.479687 0.567898 0.589465
0.498043 0.584619 0.605891
0.526766 0.610633 0.631087
0.553391 0.634267 0.654011
0.583898 0.660938 0.679752
0.457688 0.547365 0.569355
0.457936 0.547665 0.569603
0.459681 0.549315 0.571282
0.462068 0.551441 0.573354
0.466049 0.555122 0.576981
0.470639 0.559514 0.581263
0.479540 0.567625 0.589243
0.489509 0.576820 0.598181
0.501526 0.587854 0.608928
0.516115 0.601045 0.621833
0.532271 0.615527 0.635907
0.551368 0.632409 0.652290
0.575158 0.653346 0.672498
0.601867 0.676455 0.694827
0.630023 0.700590 0.717815
0.660554 0.726398 0.742742
0.541332 0.623578 0.643730
0.541659 0.624021 0.644039
0.543477 0.625494 0.645546
0.546013 0.627798 0.647772
0.550016 0.631347 0.651301
0.555894 0.636545 0.656205
0.564106 0.643717 0.663159
0.574367 0.652727 0.671905
0.586899 0.663620 0.682204
0.601799 0.676440 0.694754
0.619779 0.691922 0.709466
0.639349 0.708460 0.725487
0.662313 0.727838 0.744006
0.690979 0.751906 0.766676
0.716372 0.772936 0.786576
0.746490 0.797609 0.810174
0.637080 0.706495 0.723499
0.637380 0.706949 0.723884
0.639308 0.708497 0.725428
0.642949 0.711587 0.728298
0.645581 0.713858 0.730444
0.652278 0.719478 0.735747
0.660174 0.726142 0.742199
0.670232 0.734526 0.750127
0.683042 0.745165 0.760474
0.697743 0.757375 0.772076
0.715818 0.772272 0.786108
0.733975 0.787416 0.800372
0.758037 0.806801 0.818767
0.784537 0.828541 0.839267
0.810897 0.849585 0.859183
0.839998 0.873003 0.881223
0.742019 0.793962 0.806684
0.742343 0.794161 0.806771
0.744236 0.795767 0.808287
0.745792 0.796883 0.809532
0.749626 0.800180 0.812589
0.757330 0.806465 0.818364
0.764634 0.812212 0.823885
0.774722 0.820347 0.831563
0.786850 0.830290 0.840911
0.801480 0.842158 0.852189
0.817956 0.855545 0.864712
0.838624 0.871995 0.880062
0.859108 0.888314 0.895408
0.883353 0.907676 0.913481
0.910436 0.929269 0.933608
0.939511 0.952182 0.955178
0.019227 0.027539 0.033367
0.026979 0.038628 0.045096
0.041199 0.058930 0.066550
0.057099 0.081500 0.090387
0.072637 0.103403 0.113523
0.089075 0.126352 0.137706
0.105627 0.149215 0.161803
0.122389 0.172064 0.185800
0.139529 0.195037 0.209958
0.157057 0.218121 0.234139
0.175022 0.241342 0.258411
0.193934 0.265298 0.283406
0.213776 0.289745 0.308852
0.234349 0.314546 0.334507
0.258075 0.342256 0.363095
0.283299 0.370728 0.392328
0.036386 0.052067 0.059297
0.039251 0.056149 0.063613
0.048881 0.069849 0.078081
0.061344 0.087506 0.096728
0.075981 0.108092 0.118442
0.092078 0.130514 0.142083
0.107524 0.151807 0.164504
0.123947 0.174119 0.187980
0.140827 0.196763 0.211736
0.158204 0.219634 0.235730
0.176378 0.243064 0.260216
0.194338 0.265750 0.283896
0.214546 0.290754 0.309829
0.235968 0.316486 0.336491
0.258943 0.343265 0.364097
0.284152 0.371635 0.393250
0.062102 0.088581 0.097850
0.063317 0.090286 0.099664
0.068777 0.097974 0.107774
0.075936 0.108028 0.118390
0.087859 0.124681 0.135932
0.100551 0.142229 0.154440
0.115036 0.162104 0.175325
0.130284 0.182690 0.196983
0.146285 0.203989 0.219356
0.162975 0.225873 0.242228
0.181171 0.249248 0.266643
0.198421 0.270920 0.289235
0.218033 0.294927 0.314211
0.239402 0.320548 0.340717
0.262553 0.347374 0.368469
0.287786 0.375639 0.397339
0.088736 0.125906 0.137239
0.089463 0.126918 0.138288
0.092499 0.131110 0.142732
0.098492 0.139402 0.151451
0.105774 0.149412 0.161995
0.116680 0.164300 0.177655
0.128665 0.180520 0.194687
0.142108 0.198476 0.213502
0.156707 0.217661 0.233612
0.172279 0.237881 0.254781
0.188671 0.258705 0.276524
0.206450 0.280787 0.299543
0.225851 0.304381 0.323983
0.247344 0.329796 0.350244
0.269909 0.355727 0.376976
0.295191 0.383758 0.405646
0.116183 0.163602 0.176919
0.116672 0.164300 0.177631
0.119237 0.167739 0.181308
0.122795 0.172580 0.186373
0.128660 0.180487 0.194657
0.137735 0.192650 0.207427
0.147269 0.205278 0.220692
0.158871 0.220499 0.236600
0.171842 0.237289 0.254189
0.186143 0.255559 0.273260
0.201840 0.275153 0.293640
0.219971 0.297335 0.316650
0.237866 0.318699 0.338825
0.258580 0.342762 0.363727
0.281651 0.368865 0.390373
0.307047 0.396777 0.418732
0.144529 0.201663 0.216931
0.144913 0.202190 0.217432
0.146870 0.204759 0.220142
0.148827 0.207338 0.222836
0.154668 0.215038 0.230909
0.161380 0.223793 0.240072
0.169687 0.234573 0.251329
0.179721 0.247426 0.264739
0.191426 0.262140 0.280062
0.204598 0.278572 0.297215
0.219504 0.296753 0.316081
0.235629 0.316077 0.336122
0.254732 0.338393 0.359162
0.275731 0.362309 0.383639
0.298410 0.387381 0.409311
0.324151 0.414840 0.437254
0.174098 0.240201 0.257202
0.174424 0.240582 0.257629
0.175693 0.242252 0.259351
0.177609 0.244709 0.261913
0.182486 0.250892 0.268384
0.188117 0.258016 0.275791
0.195466 0.267238 0.285424
0.204461 0.278408 0.297055
0.215237 0.291557 0.310720
0.227685 0.306647 0.326340
0.242328 0.323936 0.344211
0.257783 0.341848 0.362754
0.275359 0.361829 0.383306
0.298506 0.387418 0.409395
0.320919 0.411519 0.433841
0.346960 0.438731 0.461371
0.205622 0.279820 0.298508
0.205927 0.280159 0.298843
0.207256 0.281865 0.300610
0.209248 0.284260 0.303086
0.214117 0.290250 0.309323
0.219098 0.296258 0.315607
0.224993 0.303409 0.323012
0.233440 0.313494 0.333404
0.243672 0.325563 0.345887
0.255805 0.339638 0.360394
0.270765 0.356651 0.377945
0.285953 0.373617 0.395257
0.304979 0.394446 0.416525
0.326943 0.417868 0.440284
0.349909 0.441808 0.464424
0.376673 0.469006 0.491568
0.240811 0.322175 0.342396
0.241096 0.322498 0.342726
0.242536 0.324207 0.344475
0.244497 0.326521 0.346915
0.248075 0.330725 0.351234
0.252775 0.336148 0.356813
0.259382 0.343766 0.364638
0.267670 0.353162 0.374346
0.277824 0.364561 0.386039
0.289971 0.378072 0.399866
0.304978 0.394491 0.416542
0.320230 0.410806 0.433070
0.339161 0.430690 0.453186
0.362015 0.454139 0.476785
0.386442 0.478750 0.501370
0.414119 0.505852 0.528362
0.281506 0.368717 0.390267
0.281723 0.368971 0.390548
0.282416 0.369671 0.391269
0.284409 0.371956 0.393526
0.289318 0.377359 0.399070
0.293967 0.382372 0.404288
0.300201 0.389233 0.411253
0.308602 0.398368 0.420426
0.318895 0.409475 0.431630
0.331390 0.422523 0.444993
0.347181 0.438995 0.461537
0.362865 0.454993 0.477654
0.382037 0.474324 0.496955
0.405862 0.497810 0.520465
0.431815 0.522865 0.545188
0.460627 0.550143 0.572076
0.329763 0.420786 0.443283
0.329977 0.421068 0.443490
0.330720 0.421798 0.444251
0.333723 0.425057 0.447484
0.337683 0.429063 0.451643
0.341536 0.433128 0.455669
0.349039 0.440941 0.463506
0.357770 0.449876 0.472481
0.368554 0.460782 0.483490
0.381533 0.473815 0.496611
0.396960 0.489103 0.511745
0.415314 0.507011 0.529497
0.436707 0.527524 0.549791
0.461662 0.551109 0.573061
0.487136 0.574706 0.596203
0.517151 0.601957 0.622691
0.387746 0.479940 0.502639
0.388021 0.480261 0.502943
0.388670 0.481026 0.503604
0.391986 0.484173 0.506823
0.395249 0.487365 0.510022
0.400490 0.492555 0.515166
0.408164 0.500085 0.522636
0.417507 0.509095 0.531558
0.428959 0.520115 0.542484
0.442781 0.533310 0.555503
0.458528 0.548142 0.570121
0.477840 0.566031 0.587708
0.498200 0.584785 0.605990
0.526859 0.610679 0.631252
0.553492 0.634345 0.654156
0.583984 0.661070 0.679949
0.457750 0.547408 0.569381
0.458009 0.547760 0.569703
0.459726 0.549293 0.571318
0.462145 0.551547 0.573490
0.466192 0.555283 0.577164
0.471772 0.560535 0.582243
0.479722 0.567802 0.589410
0.489535 0.576840 0.598210
0.501594 0.587920 0.608999
0.516131 0.601083 0.621884
0.532353 0.615586 0.635924
0.552462 0.633462 0.653357
0.575149 0.653324 0.672438
0.601984 0.676613 0.694958
0.630006 0.700567 0.717770
0.660738 0.726503 0.742721
0.541434 0.623682 0.643922
0.541767 0.624061 0.644132
0.542510 0.624667 0.644790
0.546126 0.627835 0.647877
0.548121 0.629572 0.649471
0.556078 0.636702 0.656331
0.564257 0.643921 0.663267
0.574467 0.652808 0.671914
0.586997 0.663645 0.682529
0.601917 0.676558 0.694867
0.619927 0.692030 0.709751
0.639502 0.708662 0.725577
0.662503 0.727984 0.744108
0.691195 0.751935 0.766757
0.716654 0.772919 0.786805
0.746699 0.797825 0.810165
0.637092 0.706555 0.723519
0.637425 0.706990 0.723834
0.639369 0.708422 0.725449
0.641835 0.710602 0.727564
0.645579 0.713850 0.730437
0.652352 0.719435 0.736040
0.660169 0.726134 0.742269
0.670325 0.734555 0.750306
0.682957 0.745110 0.760360
0.697902 0.757553 0.772216
0.715615 0.772298 0.786208
0.735400 0.788409 0.801469
0.757969 0.806910 0.818936
0.783519 0.827672 0.838414
0.810949 0.849799 0.859248
0.840052 0.873128 0.881250
0.742242 0.794012 0.806664
0.742380 0.794214 0.806782
0.744451 0.795963 0.808472
0.745834 0.796936 0.809599
0.749723 0.800136 0.812444
0.757624 0.806703 0.818643
0.764742 0.812314 0.823915
0.774880 0.820492 0.831727
0.786987 0.830390 0.841125
0.801659 0.842323 0.852270
0.817000 0.854535 0.863771
0.838651 0.872153 0.880264
0.859371 0.888519 0.895550
0.883600 0.907748 0.913619
0.910664 0.929252 0.933858
0.939570 0.952137 0.955338
0.029269 0.041905 0.048559
0.033357 0.047742 0.054727
0.044680 0.063876 0.071779
0.059110 0.084341 0.093380
0.074188 0.105582 0.115805
0.090446 0.128296 0.139750
0.106445 0.150340 0.162953
0.123056 0.172944 0.186758
0.140098 0.195772 0.210727
0.157576 0.218807 0.234843
0.175588 0.242070 0.259210
0.193622 0.264931 0.283002
0.214123 0.290204 0.309300
0.235542 0.315957 0.335989
0.258457 0.342695 0.363550
0.283708 0.371119 0.392763
0.040423 0.057820 0.065374
0.042834 0.061239 0.069004
0.051455 0.073506 0.081939
0.063478 0.090512 0.099914
0.076758 0.109173 0.119582
0.092703 0.131401 0.143045
0.108309 0.152885 0.165652
0.124593 0.175036 0.188920
0.141380 0.197506 0.212543
0.158695 0.220257 0.236370
0.176922 0.243805 0.260974
0.195625 0.267416 0.285616
0.215701 0.292181 0.311363
0.236313 0.316900 0.336970
0.259297 0.343636 0.364532
0.284542 0.372035 0.393681
0.063858 0.091043 0.100456
0.065016 0.092690 0.102199
0.069044 0.098351 0.108177
0.077646 0.110416 0.120917
0.088581 0.125662 0.136976
0.101920 0.144100 0.156403
0.115804 0.163080 0.176396
0.130915 0.183489 0.197864
0.146850 0.204710 0.220090
0.163471 0.226473 0.242888
0.180908 0.248876 0.266306
0.198939 0.271524 0.289879
0.218331 0.295359 0.314638
0.240644 0.322002 0.342226
0.262905 0.347728 0.368715
0.288156 0.376025 0.397758
0.089799 0.127339 0.138754
0.090512 0.128335 0.139803
0.093530 0.132550 0.144242
0.099519 0.140817 0.152952
0.107137 0.151284 0.163958
0.117245 0.165041 0.178457
0.129291 0.181347 0.195577
0.142670 0.199216 0.214298
0.157188 0.218293 0.234342
0.172744 0.238410 0.255357
0.189975 0.260363 0.278275
0.206837 0.281323 0.300064
0.226185 0.304780 0.324429
0.246857 0.329219 0.349699
0.270245 0.356068 0.377353
0.295581 0.384237 0.406114
0.116894 0.164591 0.177986
0.117363 0.165257 0.178664
0.119190 0.167713 0.181226
0.123488 0.173554 0.187362
0.129972 0.182237 0.196543
0.137451 0.192274 0.207007
0.147816 0.206014 0.221462
0.159343 0.221161 0.237309
0.172296 0.237914 0.254810
0.186612 0.256094 0.273800
0.202315 0.275719 0.294232
0.219570 0.296817 0.316162
0.237365 0.318123 0.338209
0.259830 0.344244 0.365209
0.281980 0.369306 0.390868
0.307437 0.397103 0.419173
0.145086 0.202389 0.217670
0.145447 0.202881 0.218172
0.146658 0.204442 0.219835
0.150147 0.209108 0.224635
0.155143 0.215599 0.231498
0.161819 0.224391 0.240652
0.170173 0.235147 0.251935
0.180166 0.247944 0.265313
0.191786 0.262637 0.280602
0.205041 0.279095 0.297730
0.220683 0.298217 0.317625
0.236084 0.316604 0.336664
0.254229 0.337797 0.358544
0.276045 0.362594 0.383996
0.298820 0.387712 0.409646
0.324469 0.415307 0.437624
0.174560 0.240749 0.257803
0.174859 0.241159 0.258209
0.176136 0.242781 0.259951
0.178871 0.246291 0.263554
0.182897 0.251390 0.268901
0.188504 0.258493 0.276292
0.195897 0.267746 0.285947
0.204876 0.278871 0.297520
0.215566 0.291997 0.311157
0.228057 0.307070 0.326804
0.242695 0.324373 0.344727
0.259047 0.343316 0.364289
0.276609 0.363282 0.384700
0.297974 0.386791 0.408770
0.321312 0.411917 0.434292
0.347384 0.439208 0.461746
0.206058 0.280313 0.299023
0.206316 0.280699 0.299380
0.207708 0.282355 0.301148
0.209649 0.284767 0.303610
0.212790 0.288631 0.307646
0.217829 0.294727 0.313957
0.225368 0.303816 0.323461
0.233878 0.313941 0.333913
0.244055 0.325976 0.346383
0.256176 0.340069 0.360875
0.270249 0.356063 0.377385
0.286340 0.374103 0.395757
0.304394 0.393836 0.415867
0.327323 0.418232 0.440680
0.350295 0.442171 0.464847
0.377143 0.469345 0.491960
0.241232 0.322647 0.342921
0.241449 0.322981 0.343248
0.242026 0.323661 0.343991
0.244883 0.326967 0.347375
0.247538 0.330074 0.350612
0.253151 0.336528 0.357225
0.259740 0.344162 0.365028
0.268063 0.353621 0.374744
0.278179 0.364986 0.386488
0.290304 0.378368 0.400183
0.304420 0.393822 0.415901
0.320584 0.411090 0.433494
0.340559 0.432084 0.454545
0.363378 0.455567 0.478244
0.386808 0.479144 0.501734
0.414563 0.506243 0.528766
0.281856 0.369080 0.390618
0.282110 0.369338 0.390936
0.282741 0.370125 0.391635
0.285689 0.373346 0.395047
0.289589 0.377675 0.399417
0.294307 0.382809 0.404688
0.300537 0.389638 0.411598
0.308961 0.398750 0.420815
0.319346 0.409846 0.432111
0.331796 0.422891 0.445371
0.345676 0.437410 0.459915
0.363188 0.455340 0.478065
0.383335 0.475637 0.498274
0.406344 0.498363 0.520872
0.432203 0.523281 0.545585
0.461018 0.550479 0.572446
0.330093 0.421151 0.443600
0.330351 0.421453 0.443865
0.332008 0.423155 0.445632
0.333195 0.424407 0.446845
0.337073 0.428434 0.451009
0.342903 0.434551 0.457038
0.349386 0.441268 0.463842
0.358129 0.450245 0.472925
0.369020 0.461206 0.483858
0.382067 0.474367 0.497019
0.397415 0.489486 0.512116
0.413666 0.505463 0.527964
0.435173 0.526075 0.548331
0.460932 0.550453 0.572393
0.487680 0.575194 0.596634
0.517397 0.602235 0.623013
0.388181 0.480406 0.503074
0.388406 0.480674 0.503330
0.390171 0.482387 0.504969
0.391357 0.483642 0.506225
0.395661 0.487745 0.510435
0.400897 0.492866 0.515531
0.408501 0.500416 0.523007
0.417891 0.509483 0.531971
0.429342 0.520482 0.542869
0.443164 0.533713 0.555806
0.459930 0.549422 0.571394
0.478158 0.566416 0.588044
0.500644 0.587048 0.608188
0.527212 0.610990 0.631511
0.553872 0.634756 0.654451
0.584317 0.661478 0.680122
0.458108 0.547793 0.569781
0.458499 0.548139 0.570107
0.460241 0.549736 0.571668
0.461573 0.550954 0.572939
0.466605 0.555733 0.577581
0.472141 0.560920 0.582581
0.480110 0.568239 0.589834
0.489878 0.577190 0.598575
0.501938 0.588250 0.609403
0.516627 0.601533 0.622310
0.534817 0.617812 0.638128
0.554043 0.634808 0.654640
0.576693 0.654664 0.673830
0.603498 0.677919 0.696182
0.630498 0.701048 0.718340
0.661071 0.726918 0.742956
0.541932 0.624213 0.644278
0.542287 0.624571 0.644621
0.544066 0.626025 0.646147
0.547722 0.629290 0.649278
0.550705 0.631882 0.651803
0.557695 0.638059 0.657739
0.564760 0.644265 0.663719
0.575023 0.653302 0.672325
0.587489 0.664056 0.682938
0.602400 0.676995 0.695251
0.620500 0.692340 0.710004
0.641084 0.709891 0.726963
0.664050 0.729242 0.745323
0.688080 0.749445 0.764408
0.717087 0.773446 0.787018
0.746995 0.798108 0.810530
0.637553 0.707056 0.724048
0.637968 0.707415 0.724343
0.638664 0.707945 0.724899
0.641261 0.710144 0.726978
0.645026 0.713282 0.729934
0.654011 0.721010 0.737333
0.660637 0.726450 0.742693
0.670862 0.735110 0.750692
0.683414 0.745515 0.760762
0.698251 0.757968 0.772464
0.714965 0.771725 0.785628
0.734534 0.787724 0.800786
0.758566 0.807310 0.819271
0.782640 0.827066 0.837886
0.811466 0.850167 0.859540
0.840553 0.873601 0.881487
0.742684 0.794369 0.806949
0.742852 0.794411 0.807087
0.743620 0.795350 0.807992
0.746230 0.797444 0.809751
0.751368 0.801452 0.813823
0.756790 0.806159 0.818109
0.765173 0.812736 0.824389
0.775311 0.820926 0.832169
0.787537 0.830880 0.841430
0.802095 0.842670 0.852462
0.818657 0.856027 0.865093
0.836773 0.870531 0.878816
0.861843 0.890650 0.897622
0.885147 0.909041 0.914912
0.910989 0.929654 0.933891
0.939908 0.952511 0.955508
0.039354 0.056294 0.063771
0.041870 0.059885 0.067547
0.050384 0.071979 0.080331
0.062507 0.089145 0.098451
0.076530 0.108849 0.119250
0.092542 0.131151 0.142768
0.108098 0.152576 0.165302
0.124388 0.174790 0.188658
0.141235 0.197314 0.212351
0.158559 0.220105 0.236219
0.176762 0.243621 0.260783
0.194669 0.266219 0.284364
0.214780 0.291038 0.310159
0.236222 0.316791 0.336856
0.259210 0.343490 0.364377
0.284415 0.371964 0.393496
0.046947 0.067099 0.075184
0.048827 0.069775 0.078009
0.055794 0.079639 0.088440
0.067300 0.095886 0.105587
0.079804 0.113425 0.124081
0.094773 0.134253 0.146027
0.109892 0.155048 0.167931
0.125930 0.176815 0.190785
0.142544 0.199032 0.214115
0.159690 0.221589 0.237745
0.178091 0.245335 0.262546
0.196653 0.268713 0.286943
0.215583 0.292008 0.311169
0.237107 0.317814 0.337891
0.260030 0.344488 0.365433
0.285356 0.372946 0.394640
0.067201 0.095756 0.105439
0.068281 0.097282 0.107058
0.072394 0.103070 0.113152
0.080184 0.113961 0.124659
0.090754 0.128687 0.140179
0.103146 0.145777 0.158158
0.117245 0.165052 0.178438
0.132145 0.185156 0.199567
0.147903 0.206150 0.221571
0.164445 0.227708 0.244153
0.182028 0.250330 0.267775
0.199935 0.272767 0.291162
0.219869 0.297234 0.316599
0.240523 0.321841 0.342057
0.263661 0.348609 0.369627
0.288939 0.376968 0.398700
0.091826 0.130191 0.141752
0.092532 0.131131 0.142752
0.095596 0.135392 0.147230
0.100803 0.142581 0.154793
0.108411 0.152995 0.165754
0.119078 0.167585 0.181114
0.130580 0.183050 0.197407
0.143787 0.200659 0.215844
0.158206 0.219617 0.235727
0.173645 0.239613 0.256585
0.191042 0.261666 0.279622
0.207775 0.282484 0.301271
0.226070 0.304663 0.324285
0.247507 0.330041 0.350512
0.271022 0.356933 0.378214
0.296304 0.385024 0.406951
0.118325 0.166530 0.180017
0.118819 0.167201 0.180705
0.120604 0.169633 0.183270
0.124918 0.175481 0.189428
0.131019 0.183673 0.198016
0.139211 0.194620 0.209479
0.148908 0.207425 0.222925
0.160367 0.222447 0.238640
0.173222 0.239051 0.256022
0.187464 0.257171 0.274917
0.204084 0.277877 0.296497
0.220420 0.297856 0.317266
0.238917 0.319973 0.340082
0.260556 0.345071 0.365983
0.282754 0.370148 0.391662
0.308213 0.397921 0.420001
0.146186 0.203867 0.219192
0.146558 0.204378 0.219729
0.148544 0.206965 0.222433
0.150467 0.209481 0.225105
0.156034 0.216787 0.232777
0.162677 0.225453 0.241825
0.171119 0.236321 0.253182
0.181017 0.249059 0.266481
0.192631 0.263702 0.281719
0.205797 0.280025 0.298741
0.220730 0.298276 0.317695
0.237710 0.318548 0.338644
0.255813 0.339645 0.360409
0.276805 0.363466 0.384875
0.299575 0.388592 0.410572
0.325280 0.416146 0.438474
0.175419 0.241899 0.258986
0.175709 0.242310 0.259376
0.177042 0.243946 0.261122
0.179722 0.247427 0.264739
0.184516 0.253444 0.271048
0.190118 0.260501 0.278388
0.196699 0.268763 0.287006
0.205659 0.279883 0.298550
0.216352 0.292960 0.312147
0.228783 0.307930 0.327697
0.243476 0.325327 0.345669
0.259803 0.344199 0.365145
0.277342 0.364044 0.385499
0.298751 0.387737 0.409637
0.322114 0.412731 0.435049
0.348213 0.440029 0.462675
0.206798 0.281279 0.300031
0.207078 0.281616 0.300382
0.207664 0.282316 0.301089
0.210378 0.285667 0.304586
0.214370 0.290549 0.309652
0.218501 0.295601 0.314868
0.226162 0.304750 0.324394
0.234551 0.314812 0.334803
