public/luts/lut-R04.cube
LUT_3D_SIZE 6
0.009197 0.013177 0.018164
0.056516 0.080676 0.089507
0.105453 0.148968 0.161520
0.156952 0.218045 0.234035
0.213634 0.289670 0.308745
0.283229 0.370582 0.392206
0.088506 0.125564 0.136884
0.097491 0.138013 0.150010
0.128524 0.180294 0.194507
0.172165 0.237681 0.254613
0.225726 0.304265 0.323873
0.295078 0.383630 0.405542
0.174012 0.240059 0.257080
0.177482 0.244568 0.261760
0.195413 0.267135 0.285295
0.227572 0.306508 0.326173
0.276159 0.362746 0.384157
0.346909 0.438689 0.461206
0.281401 0.368616 0.390138
0.285262 0.372883 0.394529
0.300049 0.389035 0.411057
0.331298 0.422445 0.444857
0.381854 0.474126 0.496795
0.460455 0.549955 0.571942
0.457688 0.547365 0.569355
0.462068 0.551441 0.573354
0.479540 0.567625 0.589243
0.516115 0.601045 0.621833
0.575158 0.653346 0.672498
0.660554 0.726398 0.742742
0.742019 0.793962 0.806684
0.745792 0.796883 0.809532
0.764634 0.812212 0.823885
0.801480 0.842158 0.852189
0.859108 0.888314 0.895408
0.939511 0.952182 0.955178
0.039354 0.056294 0.063771
0.062507 0.089145 0.098451
0.108098 0.152576 0.165302
0.158559 0.220105 0.236219
0.214780 0.291038 0.310159
0.284415 0.371964 0.393496
0.091826 0.130191 0.141752
0.100803 0.142581 0.154793
0.130580 0.183050 0.197407
0.173645 0.239613 0.256585
0.226070 0.304663 0.324285
0.296304 0.385024 0.406951
0.175419 0.241899 0.258986
0.179722 0.247427 0.264739
0.196699 0.268763 0.287006
0.228783 0.307930 0.327697
0.277342 0.364044 0.385499
0.348213 0.440029 0.462675
0.282625 0.369913 0.391562
0.285598 0.373227 0.394812
0.301248 0.390385 0.412409
0.332518 0.423733 0.446221
0.383319 0.475552 0.498212
0.462004 0.551407 0.573313
0.458988 0.548609 0.570585
0.461367 0.550849 0.572785
0.480911 0.568922 0.590474
0.517543 0.602371 0.623070
0.577564 0.655443 0.674521
0.662085 0.727537 0.743799
0.743405 0.794986 0.807660
0.747166 0.798147 0.810522
0.766002 0.813549 0.825116
0.802969 0.843323 0.853206
0.860587 0.889581 0.896575
0.940827 0.953166 0.956102
0.069876 0.099518 0.109417
0.082065 0.116597 0.127426
0.118475 0.166748 0.180239
0.165265 0.228798 0.245307
0.219641 0.296956 0.316283
0.289535 0.377547 0.399367
0.104482 0.147641 0.160114
0.111117 0.156737 0.169667
0.138880 0.194184 0.209026
0.179728 0.247404 0.264720
0.232577 0.312463 0.332340
0.301503 0.390621 0.412641
0.181461 0.249647 0.267043
0.185792 0.255089 0.272766
0.202272 0.275655 0.294182
0.234028 0.314155 0.334092
0.283292 0.370735 0.392274
0.353717 0.445657 0.468331
0.287717 0.375584 0.397242
0.290721 0.378954 0.400633
0.306484 0.396024 0.418214
0.337809 0.429243 0.451811
0.389911 0.482094 0.504725
0.468117 0.557077 0.578907
0.465012 0.554223 0.576094
0.469471 0.558358 0.580199
0.487090 0.574636 0.596046
0.523876 0.607962 0.628541
0.584943 0.661927 0.680742
0.668465 0.733027 0.748862
0.749651 0.800147 0.812609
0.754346 0.804143 0.816260
0.772288 0.818621 0.829876
0.809122 0.848264 0.857842
0.866228 0.894019 0.900826
0.946648 0.958037 0.960473
0.101107 0.143010 0.155249
0.109271 0.154197 0.167037
0.136568 0.191080 0.205802
0.178044 0.245203 0.262442
0.230353 0.309796 0.329599
0.300000 0.389012 0.410967
0.125207 0.175875 0.189787
0.130282 0.182680 0.196951
0.154134 0.214347 0.230120
0.191648 0.262435 0.280408
0.242470 0.324166 0.344415
0.312010 0.402001 0.424127
0.193300 0.264527 0.282601
0.196871 0.268961 0.287203
0.213272 0.289239 0.308261
0.244455 0.326471 0.346816
0.292674 0.381052 0.402825
0.364659 0.456765 0.479533
0.298157 0.387070 0.409049
0.302045 0.391234 0.413323
0.317060 0.407447 0.429666
0.348602 0.440440 0.463139
0.401405 0.493501 0.516113
0.480464 0.568538 0.590096
0.477285 0.565552 0.587237
0.481717 0.569743 0.591274
0.499526 0.585919 0.607096
0.536417 0.619245 0.639524
0.597490 0.672745 0.691195
0.681527 0.743955 0.759242
0.762309 0.810355 0.822180
0.767297 0.814381 0.825975
0.785022 0.828767 0.839411
0.821669 0.858349 0.867247
0.878086 0.903423 0.909746
0.958467 0.967030 0.969177
0.133377 0.186847 0.201323
0.138426 0.193551 0.208415
0.160573 0.222738 0.238952
0.196904 0.269038 0.287292
0.247924 0.330536 0.351021
0.316809 0.407147 0.429417
0.151365 0.210672 0.226332
0.156450 0.217338 0.233310
0.175481 0.241926 0.259048
0.209659 0.284783 0.303634
0.260140 0.344597 0.365525
0.328910 0.419947 0.442430
0.211173 0.286651 0.305626
0.214804 0.291027 0.310220
0.230359 0.309793 0.329588
0.261048 0.345661 0.366632
0.310311 0.400107 0.422331
0.382445 0.474768 0.497414
0.315027 0.405212 0.427519
0.318935 0.409389 0.431684
0.334083 0.425398 0.447845
0.366214 0.458389 0.481102
0.420271 0.511808 0.534290
0.500391 0.586810 0.607893
0.497139 0.583739 0.604959
0.500450 0.586906 0.607991
0.519323 0.603950 0.624668
0.556699 0.637165 0.656820
0.615607 0.688306 0.706133
0.702493 0.761228 0.775738
0.782326 0.826676 0.837436
0.786236 0.829858 0.840536
0.804833 0.844947 0.854703
0.841252 0.874066 0.882149
0.899182 0.920236 0.925362
0.976659 0.981578 0.982827
0.166941 0.230946 0.247531
0.171253 0.236504 0.253353
0.188979 0.259072 0.276909
0.221693 0.299389 0.318833
0.270322 0.356153 0.377435
0.341041 0.432608 0.455165
0.181264 0.249318 0.266723
0.184797 0.253798 0.271396
0.202037 0.275413 0.293933
0.233704 0.313785 0.333744
0.282881 0.370248 0.391848
0.353529 0.445466 0.468101
0.235209 0.315550 0.335606
0.238040 0.318875 0.339011
0.253967 0.337543 0.358217
0.284427 0.371953 0.393523
0.333219 0.424474 0.446921
0.408283 0.500220 0.522720
0.338860 0.430366 0.452899
0.342924 0.434599 0.457082
0.358476 0.450574 0.473177
0.391558 0.483763 0.506363
0.445051 0.535501 0.557677
0.528773 0.612359 0.632837
0.524648 0.608681 0.629308
0.528000 0.611782 0.632261
0.547233 0.628841 0.648867
0.584932 0.661895 0.680710
0.646041 0.714215 0.730998
0.731452 0.785141 0.798298
0.810857 0.849603 0.859151
0.815628 0.853515 0.862745
0.832937 0.867523 0.876032
0.869102 0.896343 0.903005
0.926729 0.941808 0.945790
1.000017 1.000021 1.000022
